assets/images/ico_search.svg

<svg width="22" height="21" viewBox="0 0 22 21" fill="none" xmlns="http://www.w3.org/2000/svg">
<path d="M15.0319 8.2166C15.0067 10.8963 13.3519 13.4148 10.8235 14.3307C8.21951 15.2804 5.32991 14.4748 3.55751 12.3379C1.82711 10.2433 1.65911 7.14812 3.04511 4.83308C4.43111 2.51804 7.21151 1.27149 9.84072 1.82269C12.8479 2.45868 15.0067 5.12988 15.0319 8.2166C15.0403 9.31052 16.7203 9.31052 16.7119 8.2166C16.6867 4.76524 14.5363 1.67852 11.3275 0.482845C8.16911 -0.695875 4.42271 0.338685 2.30591 2.98444C0.15551 5.66412 -0.180489 9.4886 1.60031 12.4566C3.37271 15.4161 6.83351 16.9171 10.1851 16.2641C13.9567 15.5348 16.6867 12.0496 16.7119 8.20812C16.7203 7.13116 15.0403 7.12268 15.0319 8.2166Z" fill="#C9C9C9"/>
<path d="M13.5283 13.6013C15.4435 15.5347 17.3671 17.4767 19.2823 19.4101C19.5595 19.6899 19.8367 19.9698 20.1055 20.2411C20.8699 21.0128 22.0627 19.8171 21.2899 19.0455C19.3747 17.112 17.4511 15.1701 15.5359 13.2367C15.2587 12.9568 14.9815 12.677 14.7127 12.4056C13.9483 11.6339 12.7639 12.8296 13.5283 13.6013Z" fill="#C9C9C9"/>
</svg>

<svg width="22" height="21" fill="none" xmlns="http://www.w3.org/2000/svg"><path d="M15.032 8.217c-.025 2.68-1.68 5.198-4.209 6.114-2.603.95-5.493.144-7.265-1.993-1.73-2.095-1.899-5.19-.513-7.505 1.386-2.315 4.167-3.562 6.796-3.01 3.007.636 5.166 3.307 5.19 6.394.01 1.094 1.69 1.094 1.68 0-.024-3.452-2.175-6.538-5.383-7.734C8.169-.696 4.423.339 2.306 2.984.156 5.664-.18 9.49 1.6 12.457c1.773 2.96 5.234 4.46 8.585 3.807 3.772-.73 6.502-4.214 6.527-8.056.008-1.077-1.672-1.085-1.68.009z" fill="#C9C9C9"/><path d="M13.528 13.601l5.754 5.81.823.83c.765.772 1.958-.424 1.185-1.195l-5.754-5.81-.823-.83c-.765-.772-1.95.424-1.185 1.195z" fill="#C9C9C9"/></svg>
